public/images/logos/css.svg

<svg width="28" height="28" viewBox="0 0 28 28" fill="none" xmlns="http://www.w3.org/2000/svg">
<g clip-path="url(#clip0_123_5)">
<path d="M24.3719 2.15393L22.4704 23.4553L13.9232 25.8249L5.39947 23.4587L3.5 2.15393H24.3719Z" fill="#264DE4"/>
<path d="M20.8426 22.0989L22.4676 3.89587H13.936V24.0137L20.8426 22.0989Z" fill="#2965F1"/>
<path d="M7.85449 11.7976L8.08868 14.4105H13.9359V11.7976H7.85449Z" fill="#EBEBEB"/>
<path d="M13.9358 6.50891H13.9268H7.38379L7.62132 9.12188H13.9358V6.50891Z" fill="#EBEBEB"/>
<path d="M13.9361 21.3021V18.5836L13.9246 18.5866L11.0146 17.8009L10.8285 15.7169H9.41449H8.20557L8.57164 19.8196L13.9241 21.3055L13.9361 21.3021Z" fill="#EBEBEB"/>
<path d="M17.1443 14.4105L16.841 17.7993L13.9268 18.5858V21.3043L19.2834 19.8197L19.3227 19.3782L19.9367 12.4992L20.0005 11.7976L20.4722 6.50891H13.9268V9.12188H17.6087L17.3709 11.7976H13.9268V14.4105H17.1443Z" fill="white"/>
</g>
<defs>
<clipPath id="clip0_123_5">
<rect width="21" height="23.8544" fill="white" transform="translate(3.5 2.07288)"/>
</clipPath>
</defs>
</svg>

<svg xmlns="http://www.w3.org/2000/svg" width="28" height="28" fill="none" xmlns:v="https://vecta.io/nano"><g clip-path="url(#A)"><path d="M24.372 2.154L22.47 23.455l-8.547 2.37-8.524-2.366L3.5 2.154h20.872z" fill="#264de4"/><path d="M20.843 22.099l1.625-18.203h-8.532v20.118l6.907-1.915z" fill="#2965f1"/><g fill="#ebebeb"><path d="M7.854 11.798l.234 2.613h5.847v-2.613H7.854zm6.082-5.289h-.009-6.543l.238 2.613h6.314V6.509zm0 14.793v-2.718l-.011.003-2.91-.786-.186-2.084H9.414 8.206l.366 4.103 5.352 1.486.012-.003z"/></g><path d="M17.144 14.411l-.303 3.389-2.914.787v2.719l5.357-1.485.039-.442.614-6.879.064-.702.472-5.289h-6.545v2.613h3.682l-.238 2.676h-3.444v2.613h3.218z" fill="#fff"/></g><defs><clipPath id="A"><path fill="#fff" transform="translate(3.5 2.073)" d="M0 0h21v23.854H0z"/></clipPath></defs></svg>
